X:1
T:Muckin’ Geordie ’s Byre
L:1/8
M:6/8
I:linebreak $
K:D
V:1 treble nm="Voice" snm="Voice"
V:1
"D" ABA AFA | d2 e f2 a | g2 e f2 d | e2 d Bcd |$ ABA AFA | d2 e f2 g | afd efe |1 d3 dcB :|2 %8
 d3 def |:$ g2 g gab | f2 f fga | efe ede |"Bm" fed Bcd |$ ABA AFA | d2 e f2 g | afd efe | %16
 ded d3 :| %17
